desktop/renderer-app/src/components/MainPageLayoutContainer/icons/github.svg

<?xml version="1.0" encoding="UTF-8"?>
<svg width="22px" height="22px" viewBox="0 0 22 22" version="1.1" xmlns="http://www.w3.org/2000/svg" xmlns:xlink="http://www.w3.org/1999/xlink">
    <title>矩形备份 24</title>
    <g id="Flat-单窗口" stroke="none" stroke-width="1" fill="none" fill-rule="evenodd" stroke-linecap="round">
        <g id="首页（单窗口）" transform="translate(-36.000000, -199.000000)" stroke="#7A7B7C">
            <g id="编组-4" transform="translate(20.000000, 88.000000)">
                <g id="编组-11备份-2" transform="translate(0.000000, 102.000000)">
                    <g id="编组-4备份" transform="translate(16.000000, 9.000000)">
                        <path d="M13.00415,12.9351443 C13.9055375,12.7603768 14.72345,12.4573672 15.3592625,12.0125426 C16.445075,11.2528847 17,10.0796057 17,8.92042419 C17,8.10724458 16.6695125,7.3480414 16.0973375,6.70501174 C15.7785125,6.34669638 16.7110625,3.67320487 15.8825,4.0332693 C15.0539375,4.39333373 13.83905,5.19031692 13.202225,5.01442651 C12.5204375,4.82611068 11.7774875,4.72264944 11,4.72264944 C10.3247,4.72264944 9.6754625,4.80070013 9.069725,4.94461046 C8.189225,5.15378925 7.3471625,4.37283458 6.5,4.0332693 C5.6528225,3.69370402 6.1151,6.458882 5.863475,6.74968309 C5.31544625,7.38305787 5,8.12595967 5,8.92042419 C5,10.0796057 5.6715725,11.2528847 6.7573625,12.0125426 C7.4806625,12.5185498 8.38775,12.8410441 9.4025375,13" id="路径"></path>
                        <path d="M9.5,13 C8.83335251,13.5163255 8.5,14.0065755 8.5,14.4708312 C8.5,14.9350463 8.5,16.1114359 8.5,18" id="路径"></path>
                        <path d="M13,13 C13.6666667,13.5747521 14,14.0908242 14,14.5481766 C14,15.0055688 14,16.15615 14,18" id="路径"></path>
                        <path d="M5,14 C5.29956342,14.034875 5.52174232,14.1660294 5.66653336,14.3934629 C5.88371992,14.7345656 6.69106179,16 7.6078451,16 C8.21905619,16 7.68309671,16 8,16" id="路径"></path>
                    </g>
                </g>
            </g>
        </g>
    </g>
</svg>

<svg width="22" height="22" xmlns="http://www.w3.org/2000/svg"><path d="M13.004 12.935c.902-.175 1.72-.478 2.355-.922C16.445 11.253 17 10.08 17 8.92c0-.813-.33-1.572-.903-2.215-.318-.358.614-3.032-.215-2.672-.828.36-2.043 1.157-2.68.981A8.288 8.288 0 0 0 11 4.723c-.675 0-1.325.078-1.93.222-.88.209-1.723-.572-2.57-.912-.847-.34-.385 2.426-.637 2.717C5.315 7.383 5 8.126 5 8.92c0 1.16.672 2.333 1.757 3.093.724.506 1.63.828 2.646.987m.097 0c-.667.516-1 1.007-1 1.47V18m4.5-5c.667.575 1 1.09 1 1.548V18m-9-4c.3.035.522.166.667.393C5.884 14.735 6.69 16 7.607 16H8" stroke="#7A7B7C" fill="none" stroke-linecap="round"/></svg>
